hudson/_inc/system.svg

<svg xmlns="http://www.w3.org/2000/svg"><g fill="#fff"><path d="m0 2.331v45.156h9.672v77.457h-9.672v44.883h45.867v-44.502h-5.298v-31.914h16.794v31.98h-5.235v44.436h48.318v-44.943h-10.806v-77.397h9.678v-45.156h-47.166v45.156h5.247v27.852h-16.773v-27.852h5.232v-45.225z"/><path d="m108.645 2.526h46.431v44.961h-7.089v70.173c0 13.929 19.992 12.9 19.992 0v-70.173h-6.627v-44.961h40.173v44.961h-10.332v101.649c-.009 30.033-73.521 30.366-73.521 0v-101.649h-9.027z"/><path d="m490.263 47.487v-44.961h44.502l32.829 110.742v-65.859h-10.917v-44.883h43.323v44.961h-11.085v122.34h-30.969l-36.126-123.117v78.174h12.267v44.943h-45.261v-44.883h10.404v-77.457z"/><path d="m316.176 72.252c-2.844-4.128-5.094-9.957-5.094-18.831v-28.128c0-25.152 26.295-33.849 47.109-15.483v-7.284h27.666v58.887h-25.719v-6.708c0-12.408-18.699-12.378-19.374-.516-.678 11.862 10.32 16.512 18.021 20.643 7.782 4.128 32.235 12.648 32.235 41.535v30.702c0 26.076-30.882 34.446-50.256 12.126v10.632h-28.386v-63.006h26.439v9.798c0 12.681 20.646 12.351 20.646.522l-.087-5.16c-.678-6.192-2.538-10.32-10.911-15.483-8.04-4.977-23.187-14.958-27.711-19.086-1.533-1.395-3.123-3.054-4.578-5.16"/><path d="m210.867 2.448h57.309c17.433 0 33.54 14.082 33.54 27.753v110.394c0 19.836-19.407 29.172-32.961 29.172h-58.617v-44.376h9.672v-77.904h-9.027zm39.993 45.039-.087 76.875h10.332c5.034 0 8.373-6.435 8.373-9.717v-57.36c0-3.609-4.344-9.798-8.142-9.798z"/><path d="m400.41 32.7c0-43.599 79.194-42.933 79.194-.204v105.456c0 44.898-79.281 45.234-79.281 1.038zm29.442 82.515c0 14.22 20.394 14.22 20.394 0v-51.222-6.372c0-14.397-20.394-14.397-20.394 0z"/></g></svg>

<?xml version="1.0" encoding="utf-8"?>
<svg id="svgRoot" version="1.0" xmlns="http://www.w3.org/2000/svg">
  <g>
    <path d="M 0 2.331 L 0 47.487 L 9.672 47.487 L 9.672 124.944 L 0 124.944 L 0 169.827 L 45.867 169.827 L 45.867 125.325 L 40.569 125.325 L 40.569 93.411 L 57.363 93.411 L 57.363 125.391 L 52.128 125.391 L 52.128 169.827 L 100.446 169.827 L 100.446 124.884 L 89.64 124.884 L 89.64 47.487 L 99.318 47.487 L 99.318 2.331 L 52.152 2.331 L 52.152 47.487 L 57.399 47.487 L 57.399 75.339 L 40.626 75.339 L 40.626 47.487 L 45.858 47.487 L 45.858 2.262 L 0 2.331 Z" class="ps00 ps10" id="path61" style="fill-rule: nonzero; stroke: none; stroke-width: 1; stroke-linecap: butt; stroke-linejoin: miter; stroke-miterlimit: 10; stroke-dasharray: none; fill: rgb(255, 255, 255);"/>
    <path d="M 108.645 2.526 L 155.076 2.526 L 155.076 47.487 L 147.987 47.487 L 147.987 117.66 C 147.987 131.589 167.979 130.56 167.979 117.66 L 167.979 47.487 L 161.352 47.487 L 161.352 2.526 L 201.525 2.526 L 201.525 47.487 L 191.193 47.487 L 191.193 149.136 C 191.184 179.169 117.672 179.502 117.672 149.136 L 117.672 47.487 L 108.645 47.487 L 108.645 2.526" class="ps00 ps10" id="path63" style="fill-rule: nonzero; stroke: none; stroke-width: 1; stroke-linecap: butt; stroke-linejoin: miter; stroke-miterlimit: 10; stroke-dasharray: none; fill: rgb(255, 255, 255);"/>
    <path d="M 490.263 47.487 L 490.263 2.526 L 534.765 2.526 L 567.594 113.268 L 567.594 47.409 L 556.677 47.409 L 556.677 2.526 L 600 2.526 L 600 47.487 L 588.915 47.487 L 588.915 169.827 L 557.946 169.827 L 521.82 46.71 L 521.82 124.884 L 534.087 124.884 L 534.087 169.827 L 488.826 169.827 L 488.826 124.944 L 499.23 124.944 L 499.23 47.487 L 490.263 47.487 Z" class="ps00 ps10" id="path65" style="fill-rule: nonzero; stroke: none; stroke-width: 1; stroke-linecap: butt; stroke-linejoin: miter; stroke-miterlimit: 10; stroke-dasharray: none; fill: rgb(255, 255, 255);"/>
    <path d="M 316.176 72.252 C 313.332 68.124 311.082 62.295 311.082 53.421 L 311.082 25.293 C 311.082 0.141 337.377 -8.556 358.191 9.81 L 358.191 2.526 L 385.857 2.526 L 385.857 61.413 L 360.138 61.413 L 360.138 54.705 C 360.138 42.297 341.439 42.327 340.764 54.189 C 340.086 66.051 351.084 70.701 358.785 74.832 C 366.567 78.96 391.02 87.48 391.02 116.367 L 391.02 147.069 C 391.02 173.145 360.138 181.515 340.764 159.195 L 340.764 169.827 L 312.378 169.827 L 312.378 106.821 L 338.817 106.821 L 338.817 116.619 C 338.817 129.3 359.463 128.97 359.463 117.141 L 359.376 111.981 C 358.698 105.789 356.838 101.661 348.465 96.498 C 340.425 91.521 325.278 81.54 320.754 77.412 C 319.221 76.017 317.631 74.358 316.176 72.252" class="ps00" id="path73" style="fill-rule: nonzero; stroke: none; fill: rgb(255, 255, 255);"/>
    <path d="M 210.867 2.448 L 268.176 2.448 C 285.609 2.448 301.716 16.53 301.716 30.201 L 301.716 140.595 C 301.716 160.431 282.309 169.767 268.755 169.767 L 210.138 169.767 L 210.138 125.391 L 219.81 125.391 L 219.81 47.487 L 210.783 47.487 L 210.867 2.448 M 250.86 47.487 L 250.773 124.362 L 261.105 124.362 C 266.139 124.362 269.478 117.927 269.478 114.645 L 269.478 57.285 C 269.478 53.676 265.134 47.487 261.336 47.487 L 250.86 47.487" class="ps00 ps10" id="path75" style="fill-rule: nonzero; stroke: none; stroke-width: 1; stroke-linecap: butt; stroke-linejoin: miter; stroke-miterlimit: 10; stroke-dasharray: none; fill: rgb(255, 255, 255);"/>
    <path d="M 400.41 32.7 C 400.41 -10.899 479.604 -10.233 479.604 32.496 L 479.604 137.952 C 479.604 182.85 400.323 183.186 400.323 138.99 L 400.41 32.7 M 429.852 115.215 C 429.852 129.435 450.246 129.435 450.246 115.215 L 450.246 63.993 L 450.246 57.621 C 450.246 43.224 429.852 43.224 429.852 57.621 L 429.852 115.215" class="ps00" id="path93" style="fill-rule: nonzero; stroke: none; fill: rgb(255, 255, 255);"/>
  </g>
</svg>
